resources/haticons/SVG/facebook.svg

<!-- Generated by IcoMoon.io -->
<svg version="1.1" xmlns="http://www.w3.org/2000/svg" width="24" height="24" viewBox="0 0 24 24">
<title>facebook</title>
<path d="M14.25 4.5h3.75v-4.5h-3.75c-2.895 0-5.25 2.355-5.25 5.25v2.25h-3v4.5h3v12h4.5v-12h3.75l0.75-4.5h-4.5v-2.25c0-0.407 0.343-0.75 0.75-0.75z"></path>
</svg>

<svg xmlns="http://www.w3.org/2000/svg" width="24" height="24"><path d="M14.25 4.5H18V0h-3.75A5.256 5.256 0 0 0 9 5.25V7.5H6V12h3v12h4.5V12h3.75L18 7.5h-4.5V5.25a.76.76 0 0 1 .75-.75z"/></svg>
